neru-dark-classic/22x22/actions/account-edit.svg

<svg xmlns="http://www.w3.org/2000/svg" width="22" height="22"><defs><style id="current-color-scheme" type="text/css">.ColorScheme-Text{color:#d3dae3}</style></defs><path class="ColorScheme-Text" d="M6.5 3C5.669 3 5 3.669 5 4.5V5h12v-.5c0-.831-.669-1.5-1.5-1.5h-9zM5 7v2h12V7H5zm0 4v2h12v-2H5zm0 4v2h9.25l1.998-2H5z" fill="currentColor"/><path class="ColorScheme-Text" d="M5 5v2h12V5zm0 4v2h12V9zm0 4v2h11.248l.752-.752V13zm0 4v.5c0 .831.669 1.5 1.5 1.5H13v-.75L14.25 17z" opacity=".3" fill="currentColor"/><path class="ColorScheme-Text" d="M15 3v13.248l2-2V4.5c0-.831-.669-1.5-1.5-1.5z" opacity=".3" fill="currentColor"/><path class="ColorScheme-Text" d="M18.806 14a.362.362 0 0 0-.254.105l-.697.704 1.336 1.336.703-.698a.354.354 0 0 0 0-.505l-.836-.837a.357.357 0 0 0-.252-.105zm-1.481 1.339L14 18.664V20h1.336l3.325-3.325z" fill="currentColor"/></svg>

<svg xmlns="http://www.w3.org/2000/svg" width="22" height="22" version="1.1">
 <defs>
  <style id="current-color-scheme" type="text/css">
   .ColorScheme-Text { color:#d3dae3; } .ColorScheme-Highlight { color:#3fb7ff; }
  </style>
 </defs>
 <path style="fill:currentColor" class="ColorScheme-Text" d="M 6.5 3 C 5.669 3 5 3.669 5 4.5 L 5 5 L 17 5 L 17 4.5 C 17 3.669 16.331 3 15.5 3 L 6.5 3 z M 5 7 L 5 9 L 17 9 L 17 7 L 5 7 z M 5 11 L 5 13 L 17 13 L 17 11 L 5 11 z M 5 15 L 5 17 L 14.25 17 L 16.248047 15 L 5 15 z"/>
 <path style="opacity:0.3;fill:currentColor" class="ColorScheme-Text" d="M 5,5 V 7 H 17 V 5 Z M 5,9 V 11 H 17 V 9 Z M 5,13 V 15 H 16.248 L 17,14.248 V 13 Z M 5,17 V 17.5 C 5,18.331 5.669,19 6.5,19 H 13 V 18.25 L 14.25,17 Z"/>
 <path style="opacity:0.3;fill:currentColor" class="ColorScheme-Text" d="M 15,3 V 16.248 L 17,14.248 V 13 11 9 7 5 4.5 C 17,3.669 16.331,3 15.5,3 Z"/>
 <path style="fill:currentColor" class="ColorScheme-Text" d="M 18.806,14 C 18.715,14 18.623,14.035 18.552,14.105 L 17.855,14.809 19.191,16.145 19.894,15.447 C 20.035,15.306 20.035,15.083 19.894,14.942 L 19.058,14.105 C 18.987,14.035 18.897,14 18.806,14 Z M 17.325,15.339 14,18.664 V 20 H 15.336 L 18.661,16.675 Z"/>
</svg>
